static/images/pieces/shogi/ctk/1NG.svg

<svg height="60" width="52.078" xmlns="http://www.w3.org/2000/svg" xmlns:xlink="http://www.w3.org/1999/xlink"><filter id="a"><feGaussianBlur in="SourceAlpha" result="blur" stdDeviation="2"/><feOffset dx="2" dy="2" result="offsetBlur"/><feBlend in="SourceGraphic" in2="offsetBlur" mode="normal"/></filter><g filter="url(#a)" transform="translate(5 5)"><g transform="matrix(-1 0 0 -1 42.078 50)"><path d="m.598 48.948 6.86-44.754 13.38-3.936 13.607 4.386 7.084 44.641z" fill="#feec99"/><path d="m24.088 37.391c.397-.478.06-.525-1.838-.255-4.253.606-6.373.467-7.507-.494l-1.051-.89 1.073-.909c.59-.5 1.371-1.075 1.735-1.279.58-.324.572-.498-.062-1.404-.647-.924-.653-1.113-.051-1.778.608-.671.564-.815-.454-1.482-1.823-1.194-1.374-1.645 1.321-1.329 2.295.27 2.45.228 2.45-.664 0-.665-.278-.952-.92-.952-1.068 0-2.643-.76-2.643-1.275 0-.47 7.01-1.964 7.575-1.615.932.576.427 1.917-.896 2.378-1.769.617-1.84 1.927-.086 1.576.83-.166 1.44-.019 1.82.437.692.835.29 1.616-.833 1.616-1.274 0-2.237.48-2.237 1.116 0 .364.528.55 1.447.508 1.019-.046 1.447.133 1.447.603 0 .369-.647.858-1.447 1.094-.916.27-1.447.71-1.447 1.202 0 .633.474.8 2.56.91 2.247.117 2.578.253 2.7 1.11.1.709-.228 1.165-1.203 1.67-1.64.847-2.095.88-1.453.106zm-4.901-3.395.15-1.054-1.479.936c-1.984 1.257-2.099 1.839-.29 1.47 1.095-.222 1.506-.565 1.619-1.352zm.07-3.413c0-.47-.241-.622-.703-.445-.388.149-.889.27-1.114.27-.224 0-.408.2-.408.445s.5.446 1.113.446c.725 0 1.113-.25 1.113-.716zm-8.682-5.207c3.341-2.806 6.326-6.095 7.45-8.209l1.002-1.886-.997-.7c-1.299-.909-1.263-1.455.118-1.802.706-.177 1.536-.005 2.258.468.94.616 1.116 1.036 1 2.383-.14 1.626-.118 1.648 3.963 4.088 5.506 3.291 6.802 4.472 6.802 6.197 0 1.029-.203 1.376-.802 1.376-.8 0-4.038-2.627-8.397-6.812l-2.297-2.205-3.063 3.062c-2.636 2.635-7.678 6.004-8.88 5.933-.21-.013.619-.864 1.843-1.893z" fill="#fecece"/><path d="m15.139 37.081c-1.29-.8-.934-2.12.814-3.016 1.405-.72 1.51-.887.891-1.401-.79-.655-.935-2.06-.258-2.478.714-.441.517-1.03-.445-1.336-.49-.156-.89-.54-.89-.855 0-.42.598-.516 2.226-.36 2.04.197 2.226.136 2.226-.732 0-.66-.278-.948-.92-.948-1.064 0-2.642-.76-2.642-1.272 0-.357 4.654-1.445 6.667-1.56 1.672-.094 1.698 1.293.04 2.15-1.8.931-1.87 2.2-.099 1.811.833-.183 1.443-.063 1.787.351.643.776-.06 1.477-1.711 1.706-.632.088-1.174.497-1.26.95-.123.642.056.745.918.529.692-.174 1.273-.025 1.643.42.486.585.392.757-.619 1.142-.654.249-1.378.453-1.606.453-.23 0-.417.39-.417.867 0 .73.364.888 2.292 1.002 2.736.16 3.88 1.294 2.41 2.387-1.045.775-2.215.856-1.76.12.213-.345.082-.429-.39-.248-1.47.565-8.116.802-8.897.318zm3.34-1.769c.534-.004.779-.359.779-1.13 0-1.091-.038-1.105-1.257-.475-.691.357-1.543.998-1.892 1.424-.58.707-.538.749.477.481.613-.162 1.464-.296 1.893-.3zm.779-4.506c0-.886-.357-1.02-1.522-.573-1.091.419-.83 1.281.409 1.353.818.047 1.113-.16 1.113-.78zm6.217-8.128-5.137-4.614-1.32 1.761c-1.33 1.776-5.543 5.2-7.898 6.417-2.508 1.297-2.05.336 1.091-2.29 3.144-2.628 6.568-6.915 6.59-8.25.007-.374-.428-1.057-.965-1.517l-.977-.836 1.022-.378c.657-.243 1.444-.175 2.202.192.937.453 1.18.886 1.184 2.117.002.851.158 1.787.344 2.079.187.292 1.876 1.38 3.754 2.416 4.59 2.534 6.892 4.637 6.717 6.138-.074.631-.435 1.2-.802 1.264-.367.063-2.98-1.961-5.805-4.499z" fill="#feb0b0"/><path d="m15.362 37.098c-1.489-.635-1.243-1.967.541-2.928 1.382-.744 1.475-.907.89-1.552-.857-.948-.83-2.17.056-2.51.58-.222.479-.458-.557-1.305l-1.264-1.034 2.337-.016c2.036-.014 2.338-.132 2.338-.907 0-.576-.297-.89-.841-.89-.463 0-1.314-.395-1.892-.876l-1.052-.876 1.114-.02c.612-.011 2.183-.305 3.491-.653s2.66-.525 3.006-.393c1.074.413.688 1.536-.709 2.063-1.651.623-1.944 2.34-.33 1.934.553-.138 1.283-.08 1.623.13.945.584.247 1.726-1.152 1.887-.798.091-1.304.445-1.406.982-.131.693.033.79.947.56.716-.18 1.3-.045 1.651.379.45.542.338.735-.646 1.109-.654.249-1.378.453-1.607.453-.228 0-.416.39-.416.867 0 .73.364.888 2.292 1.002 2.736.16 3.88 1.294 2.41 2.387-1.035.768-2.215.856-1.767.131.217-.352-.016-.43-.753-.251-2.214.536-7.34.738-8.304.327zm3.065-1.786c.643-.005 1.503-1.709 1.077-2.134-.275-.276-2.72 1.131-3.395 1.953-.58.707-.538.749.477.481.613-.162 1.44-.296 1.84-.3zm.83-4.506c0-.886-.356-1.02-1.521-.573-1.091.419-.83 1.281.409 1.353.818.047 1.113-.16 1.113-.78zm8.612-6.12c-1.675-1.458-4.018-3.523-5.207-4.587l-2.162-1.936-3.406 3.34c-2.884 2.828-7.324 5.817-7.839 5.277-.082-.086 1.175-1.26 2.795-2.609 3.176-2.644 6.166-6.247 6.615-7.97.19-.727.043-1.243-.455-1.607-1.134-.83-.87-1.551.57-1.551 1.847 0 2.841 1.134 2.516 2.869-.256 1.363-.166 1.453 3.766 3.746 5.332 3.11 7.195 4.76 7.02 6.218-.073.618-.367 1.2-.651 1.294-.285.093-1.888-1.024-3.562-2.483z" fill="#fe8e8e"/><path d="m15.362 37.015c-.551-.28-1.002-.765-1.002-1.077 0-.568 1.804-2.198 2.801-2.53.363-.121.286-.421-.245-.952-.952-.953-1-1.99-.107-2.332.837-.321.875-1.052.054-1.052-.337 0-.862-.3-1.167-.668-.48-.578-.25-.667 1.726-.667 1.984 0 2.281-.116 2.281-.891 0-.576-.297-.89-.841-.89-.463 0-1.314-.395-1.892-.876l-1.052-.876 1.377-.015c.757-.008 2.329-.301 3.494-.652 1.165-.35 2.399-.53 2.742-.398 1.072.412.685 1.535-.711 2.062-1.633.617-1.888 2.199-.334 2.073 1.68-.136 2.115-.009 2.115.62 0 .333-.65.79-1.444 1.018-1.792.514-2.421 2.226-.655 1.782.7-.175 1.297-.048 1.625.347.576.695.364.892-1.418 1.318-.888.212-1.225.569-1.225 1.298 0 .899.182.987 1.732.84 3.085-.295 4.808 1.457 2.477 2.519-1.424.649-1.672.65-1.271.001.234-.379-.26-.432-1.866-.202-4.517.647-6.221.695-7.194.2zm4.004-1.998c.48-.297.419-1.937-.072-1.937-.73 0-3.133 1.541-3.374 2.165-.185.479.12.541 1.437.294.92-.173 1.823-.408 2.009-.522zm-.108-4.2c0-.694-.241-.882-.997-.774-1.437.205-1.54 1.481-.13 1.598.87.072 1.127-.115 1.127-.824zm7.97-6.728c-2.019-1.79-4.376-3.872-5.237-4.627l-1.566-1.373-2.543 2.709c-2.36 2.514-6.1 5.18-8.197 5.84-.605.19-.462-.05.445-.747 4.356-3.353 8.683-8.506 8.683-10.341 0-.415-.301-.87-.668-1.01-1.196-.46-.755-1.497.636-1.497 1.845 0 2.79 1.087 2.462 2.834-.26 1.391-.195 1.453 4.414 4.193 4.883 2.904 6.643 4.56 6.422 6.047-.242 1.628-1.159 1.244-4.85-2.028z" fill="#fe6f6f"/><path d="m15.853 37.09c-.526-.212-1.097-.613-1.269-.89-.362-.587.98-2.23 1.822-2.23.945 0 1.175-.85.431-1.593-.88-.881-.894-1.92-.028-2.253.837-.321.875-1.052.054-1.052-.337 0-.862-.3-1.167-.668-.48-.578-.25-.667 1.726-.667 1.984 0 2.281-.116 2.281-.891 0-.576-.297-.89-.841-.89-.463 0-1.314-.395-1.892-.876l-1.052-.876 1.336-.02c.735-.011 2.37-.296 3.635-.632 1.655-.44 2.435-.477 2.783-.129.783.783.568 1.214-.852 1.709-1.99.693-1.838 2.16.223 2.16 2.112 0 2.038 1.06-.112 1.59-1.235.306-1.67.645-1.67 1.304 0 .86.11.886 2.171.515.215-.039.483.184.597.496.121.33-.365.765-1.169 1.045-.995.347-1.376.76-1.376 1.495 0 .929.16.997 1.893.812 1.302-.14 2.17.016 2.783.5.884.698.882.71-.185 1.613-.817.69-1.158.775-1.42.35-.277-.447-.983-.451-3.498-.02-3.607.619-3.901.624-5.204.098zm3.513-2.073c.185-.115.337-.704.337-1.309v-1.1l-1.773 1.015c-2.487 1.423-2.756 2.325-.573 1.916.92-.173 1.823-.408 2.009-.522zm.255-4.275c.108-.57-.145-.78-.944-.78-1.153 0-2.3.979-1.77 1.51.592.59 2.564.06 2.714-.73zm9.175-5.32c-1.205-1.04-3.555-3.137-5.221-4.659l-3.03-2.767-2.981 3.024c-2.566 2.602-7.102 5.809-8.236 5.822-.197.002.805-.965 2.226-2.15 3.332-2.78 5.658-5.377 6.776-7.569.886-1.736.886-1.754.02-2.538-1.208-1.093-1.093-1.542.394-1.542 1.827 0 3.032 1.455 2.383 2.878-.576 1.265-.203 1.602 4.943 4.452 3.922 2.172 6.217 4.317 6.024 5.633-.23 1.572-.95 1.445-3.298-.583z" fill="#fe4f4f"/><path d="m16.285 37.231c-1.178-.24-2.107-1.27-1.716-1.903.157-.254.725-.697 1.263-.983.888-.473.92-.452.357.231-.867 1.05-.4 1.313 1.703.958 1.638-.277 1.811-.432 1.811-1.614v-1.308l-1.447.748c-1.332.688-1.398.69-.836.011.523-.63.514-.736-.064-.736-.616 0-1.215-.873-1.215-1.77 0-.199.35-.495.78-.658.624-.238.668-.186.222.264-.93.937-.63 1.337.89 1.19 1.104-.107 1.448-.35 1.448-1.03 0-.601-.254-.848-.78-.76-.428.072-.779-.078-.779-.334 0-.255-.262-.465-.583-.465-.32 0-.971-.307-1.447-.682-.803-.635-.707-.674 1.362-.557 1.988.113 2.241.023 2.363-.835.108-.752-.152-1.024-1.193-1.253-.732-.16-1.548-.554-1.814-.874-.383-.462.001-.647 1.862-.896 3.938-.528 5.366-.503 5.571.097.11.325-.393.77-1.183 1.046-2.025.706-1.902 2.173.183 2.173 1.088 0 1.558.202 1.558.668 0 .378-.399.668-.92.668-1.407 0-2.642.827-2.642 1.769 0 .725.233.809 1.618.584 1.267-.206 1.573-.127 1.41.362-.114.344-.592.696-1.061.784-1.283.24-1.9.895-1.669 1.775.162.62.676.789 2.407.789 2.845 0 3.72.786 2.231 2.003-.783.64-1.164.734-1.403.347-.3-.486-2.72-.398-6.409.232-.5.085-1.345.067-1.878-.041zm-3.583-13.487c3.265-3.044 5.598-5.921 6.249-7.708.184-.506-.03-1.064-.593-1.546-1.225-1.049-1.102-1.447.444-1.447 1.714 0 2.987 1.715 2.269 3.057-.545 1.018-.182 1.334 5.089 4.422 4.076 2.389 5.465 3.606 5.818 5.1.656 2.773-2.055 1.147-8.541-5.126l-2.723-2.633-3.288 3.267c-1.809 1.797-4.39 3.846-5.738 4.554l-2.449 1.287z" fill="#fe2f2f"/><path d="m14.846 36.469c-.658-.794-.37-1.408.986-2.106.805-.414.88-.398.42.087-.826.874-.678 1.302.446 1.295 2.213-.013 3.005-.495 3.005-1.827 0-1.503-.09-1.53-1.685-.512-1.147.732-1.178.732-.598 0 .527-.666.512-.771-.111-.771-.398 0-.723-.2-.723-.446 0-.245.702-.445 1.559-.445 1.384 0 1.558-.13 1.558-1.165 0-.946-.167-1.121-.89-.932-.49.128-.89.05-.89-.171 0-.222-.263-.404-.584-.404-.32 0-.971-.31-1.447-.688-.8-.636-.694-.667 1.413-.411 1.895.23 2.326.148 2.568-.482.385-1.004-.408-1.895-1.838-2.066-3.211-.382-.331-1.617 4.34-1.86 1.597-.084 1.694.72.181 1.502-1.885.975-1.753 2.394.226 2.424.835.013 1.602.273 1.706.58.111.33-.2.556-.77.556-1.465 0-2.68.823-2.68 1.817 0 .788.195.859 1.617.592 2.082-.39 1.908.71-.2 1.257-1.11.288-1.416.604-1.416 1.467 0 1.049.127 1.1 2.672 1.1 2.374 0 2.671.1 2.671.891 0 .49-.15.895-.334.9-.183.006-2.652.12-5.486.254-4.28.201-5.248.128-5.716-.436zm10.717-14.09-5-4.5-3.013 3.036c-1.657 1.67-4.105 3.607-5.44 4.305l-2.425 1.267 1.558-1.232c2.666-2.109 6.1-5.957 7.192-8.06l1.046-2.013-1.002-.679c-1.251-.847-1.286-1.46-.082-1.46 1.787 0 2.713.852 2.582 2.376-.067.782.023 1.656.2 1.943s2.107 1.543 4.288 2.79c5.286 3.026 8.017 6.159 5.751 6.599-.36.07-2.905-1.898-5.655-4.372z" fill="#fe0404"/></g></g></svg>

<svg xmlns="http://www.w3.org/2000/svg" width="52.078" height="60">
<!--
Created by Hari Seldon and modified by orangain, licensed under Creative Commons Attribution-Share Alike 3.0 Unported.
See: https://creativecommons.org/licenses/by-sa/3.0/deed.en

Original file is available at: https://commons.wikimedia.org/wiki/File:Shogi_narigin(svg).svg
-->
<filter id="drop-shadow">
    <feGaussianBlur in="SourceAlpha" result="blur" stdDeviation="2" />
    <feOffset result="offsetBlur" dx="2" dy="2" />
    <feBlend in="SourceGraphic" in2="offsetBlur" mode="normal" />
</filter>
<g filter="url(#drop-shadow)" transform="translate(5 5)">
<g transform="rotate(180 21.039 25)">
    <path d="M0.598 48.948l6.86 -44.754 13.38 -3.936 13.607 4.386 7.084 44.641z" fill="#FEEC99"/>
    <path d="M24.088 37.391C24.485 36.913 24.148 36.866 22.25 37.136 17.997 37.742 15.877 37.603 14.743 36.642L13.692 35.752 14.765 34.843C15.355 34.343 16.136 33.768 16.5 33.564 17.08 33.24 17.072 33.066 16.438 32.16 15.791 31.236 15.785 31.047 16.387 30.382 16.995 29.711 16.951 29.567 15.933 28.9 14.11 27.706 14.559 27.255 17.254 27.571 19.549 27.841 19.704 27.799 19.704 26.907 19.704 26.242 19.426 25.955 18.784 25.955 17.716 25.955 16.141 25.195 16.141 24.68 16.141 24.21 23.151 22.716 23.716 23.065 24.648 23.641 24.143 24.982 22.82 25.443 21.051 26.06 20.98 27.37 22.734 27.019 23.564 26.853 24.174 27 24.554 27.456 25.246 28.291 24.844 29.072 23.721 29.072 22.447 29.072 21.484 29.552 21.484 30.188 21.484 30.552 22.012 30.738 22.931 30.696 23.95 30.65 24.378 30.829 24.378 31.299 24.378 31.668 23.731 32.157 22.931 32.393 22.015 32.663 21.484 33.103 21.484 33.595 21.484 34.228 21.958 34.395 24.044 34.505 26.291 34.622 26.622 34.758 26.744 35.615 26.844 36.324 26.516 36.78 25.541 37.285 23.901 38.132 23.446 38.165 24.088 37.391ZM19.187 33.996L19.337 32.942 17.858 33.878C15.874 35.135 15.759 35.717 17.568 35.348 18.663 35.126 19.074 34.783 19.187 33.996ZM19.257 30.583C19.257 30.113 19.016 29.961 18.554 30.138 18.166 30.287 17.665 30.408 17.44 30.408 17.216 30.408 17.032 30.608 17.032 30.853 17.032 31.098 17.532 31.299 18.145 31.299 18.87 31.299 19.258 31.049 19.258 30.583ZM10.575 25.376C13.916 22.57 16.901 19.281 18.025 17.167L19.027 15.281 18.03 14.581C16.731 13.672 16.767 13.126 18.148 12.779 18.854 12.602 19.684 12.774 20.406 13.247 21.346 13.863 21.522 14.283 21.406 15.63 21.266 17.256 21.288 17.278 25.369 19.718 30.875 23.009 32.171 24.19 32.171 25.915 32.171 26.944 31.968 27.291 31.369 27.291 30.569 27.291 27.331 24.664 22.972 20.479L20.675 18.274 17.612 21.336C14.976 23.971 9.934 27.34 8.732 27.269 8.522 27.256 9.351 26.405 10.575 25.376Z" fill="#fecece"/>
    <path d="M15.139 37.081C13.849 36.281 14.205 34.961 15.953 34.065 17.358 33.345 17.463 33.178 16.844 32.664 16.054 32.009 15.909 30.604 16.586 30.186 17.3 29.745 17.103 29.156 16.141 28.85 15.651 28.694 15.251 28.31 15.251 27.995 15.251 27.575 15.849 27.479 17.477 27.635 19.517 27.832 19.703 27.771 19.703 26.903 19.703 26.243 19.425 25.955 18.783 25.955 17.719 25.955 16.141 25.195 16.141 24.683 16.141 24.326 20.795 23.238 22.808 23.123 24.48 23.029 24.506 24.416 22.848 25.273 21.048 26.204 20.978 27.473 22.749 27.084 23.582 26.901 24.192 27.021 24.536 27.435 25.179 28.211 24.476 28.912 22.825 29.141 22.193 29.229 21.651 29.638 21.565 30.091 21.442 30.733 21.621 30.836 22.483 30.62 23.175 30.446 23.756 30.595 24.126 31.04 24.612 31.625 24.518 31.797 23.507 32.182 22.853 32.431 22.129 32.635 21.901 32.635 21.671 32.635 21.484 33.025 21.484 33.502 21.484 34.232 21.848 34.39 23.776 34.504 26.512 34.664 27.656 35.798 26.186 36.891 25.141 37.666 23.971 37.747 24.426 37.011 24.639 36.666 24.508 36.582 24.036 36.763 22.566 37.328 15.92 37.565 15.139 37.081ZM18.479 35.312C19.013 35.308 19.258 34.953 19.258 34.182 19.258 33.091 19.22 33.077 18.001 33.707 17.31 34.064 16.458 34.705 16.109 35.131 15.529 35.838 15.571 35.88 16.586 35.612 17.199 35.45 18.05 35.316 18.479 35.312ZM19.258 30.806C19.258 29.92 18.901 29.786 17.736 30.233 16.645 30.652 16.906 31.514 18.145 31.586 18.963 31.633 19.258 31.426 19.258 30.806ZM25.475 22.678L20.338 18.064 19.018 19.825C17.688 21.601 13.475 25.025 11.12 26.242 8.612 27.539 9.07 26.578 12.211 23.952 15.355 21.324 18.779 17.037 18.801 15.702 18.808 15.328 18.373 14.645 17.836 14.185L16.859 13.349 17.881 12.971C18.538 12.728 19.325 12.796 20.083 13.163 21.02 13.616 21.263 14.049 21.267 15.28 21.269 16.131 21.425 17.067 21.611 17.359 21.798 17.651 23.487 18.739 25.365 19.775 29.955 22.309 32.257 24.412 32.082 25.913 32.008 26.544 31.647 27.113 31.28 27.177 30.913 27.24 28.3 25.216 25.475 22.678Z" fill="#feb0b0"/>
    <path d="M15.362 37.098C13.873 36.463 14.119 35.131 15.903 34.17 17.285 33.426 17.378 33.263 16.793 32.618 15.936 31.67 15.963 30.448 16.849 30.108 17.429 29.886 17.328 29.65 16.292 28.803L15.028 27.769 17.365 27.753C19.401 27.739 19.703 27.621 19.703 26.846 19.703 26.27 19.406 25.956 18.862 25.956 18.399 25.956 17.548 25.561 16.97 25.08L15.918 24.204 17.032 24.184C17.644 24.173 19.215 23.879 20.523 23.531 21.831 23.183 23.183 23.006 23.529 23.138 24.603 23.551 24.217 24.674 22.82 25.201 21.169 25.824 20.876 27.541 22.49 27.135 23.043 26.997 23.773 27.055 24.113 27.265 25.058 27.849 24.36 28.991 22.961 29.152 22.163 29.243 21.657 29.597 21.555 30.134 21.424 30.827 21.588 30.924 22.502 30.694 23.218 30.514 23.802 30.649 24.153 31.073 24.603 31.615 24.491 31.808 23.507 32.182 22.853 32.431 22.129 32.635 21.9 32.635 21.672 32.635 21.484 33.025 21.484 33.502 21.484 34.232 21.848 34.39 23.776 34.504 26.512 34.664 27.656 35.798 26.186 36.891 25.151 37.659 23.971 37.747 24.419 37.022 24.636 36.67 24.403 36.592 23.666 36.771 21.452 37.307 16.326 37.509 15.362 37.098ZM18.427 35.312C19.07 35.307 19.93 33.603 19.504 33.178 19.229 32.902 16.784 34.309 16.109 35.131 15.529 35.838 15.571 35.88 16.586 35.612 17.199 35.45 18.026 35.316 18.426 35.312ZM19.257 30.806C19.257 29.92 18.901 29.786 17.736 30.233 16.645 30.652 16.906 31.514 18.145 31.586 18.963 31.633 19.258 31.426 19.258 30.806ZM27.869 24.686C26.194 23.228 23.851 21.163 22.662 20.099L20.5 18.163 17.094 21.503C14.21 24.331 9.77 27.32 9.255 26.78 9.173 26.694 10.43 25.52 12.05 24.171 15.226 21.527 18.216 17.924 18.665 16.201 18.855 15.474 18.708 14.958 18.21 14.594 17.076 13.764 17.34 13.043 18.78 13.043 20.627 13.043 21.621 14.177 21.296 15.912 21.04 17.275 21.13 17.365 25.062 19.658 30.394 22.768 32.257 24.418 32.082 25.876 32.009 26.494 31.715 27.076 31.431 27.17 31.146 27.263 29.543 26.146 27.869 24.687Z" fill="#fe8e8e"/>
    <path d="M15.362 37.015C14.811 36.735 14.36 36.25 14.36 35.938 14.36 35.37 16.164 33.74 17.161 33.408 17.524 33.287 17.447 32.987 16.916 32.456 15.964 31.503 15.916 30.466 16.809 30.124 17.646 29.803 17.684 29.072 16.863 29.072 16.526 29.072 16.001 28.772 15.696 28.404 15.216 27.826 15.446 27.737 17.422 27.737 19.406 27.737 19.703 27.621 19.703 26.846 19.703 26.27 19.406 25.956 18.862 25.956 18.399 25.956 17.548 25.561 16.97 25.08L15.918 24.204 17.295 24.189C18.052 24.181 19.624 23.888 20.789 23.537 21.954 23.187 23.188 23.007 23.531 23.139 24.603 23.551 24.216 24.674 22.82 25.201 21.187 25.818 20.932 27.4 22.486 27.274 24.166 27.138 24.601 27.265 24.601 27.894 24.601 28.227 23.951 28.684 23.157 28.912 21.365 29.426 20.736 31.138 22.502 30.694 23.202 30.519 23.799 30.646 24.127 31.041 24.703 31.736 24.491 31.933 22.709 32.359 21.821 32.571 21.484 32.928 21.484 33.657 21.484 34.556 21.666 34.644 23.216 34.497 26.301 34.202 28.024 35.954 25.693 37.016 24.269 37.665 24.021 37.666 24.422 37.017 24.656 36.638 24.162 36.585 22.556 36.815 18.039 37.462 16.335 37.51 15.362 37.015ZM19.366 35.017C19.846 34.72 19.785 33.08 19.294 33.08 18.564 33.08 16.161 34.621 15.92 35.245 15.735 35.724 16.04 35.786 17.357 35.539 18.277 35.366 19.18 35.131 19.366 35.017ZM19.258 30.817C19.258 30.123 19.017 29.935 18.261 30.043 16.824 30.248 16.721 31.524 18.131 31.641 19.001 31.713 19.258 31.526 19.258 30.817ZM27.228 24.089C25.209 22.299 22.852 20.217 21.991 19.462L20.425 18.089 17.882 20.798C15.522 23.312 11.782 25.978 9.685 26.638 9.08 26.828 9.223 26.588 10.13 25.891 14.486 22.538 18.813 17.385 18.813 15.55 18.813 15.135 18.512 14.68 18.145 14.54 16.949 14.08 17.39 13.043 18.781 13.043 20.626 13.043 21.571 14.13 21.243 15.877 20.983 17.268 21.048 17.33 25.657 20.07 30.54 22.974 32.3 24.63 32.079 26.117 31.837 27.745 30.92 27.361 27.229 24.089Z" fill="#fe6f6f"/>
    <path d="M15.853 37.09C15.327 36.878 14.756 36.477 14.584 36.2 14.222 35.613 15.564 33.97 16.406 33.97 17.351 33.97 17.581 33.12 16.837 32.377 15.957 31.496 15.943 30.457 16.809 30.124 17.646 29.803 17.684 29.072 16.863 29.072 16.526 29.072 16.001 28.772 15.696 28.404 15.216 27.826 15.446 27.737 17.422 27.737 19.406 27.737 19.703 27.621 19.703 26.846 19.703 26.27 19.406 25.956 18.862 25.956 18.399 25.956 17.548 25.561 16.97 25.08L15.918 24.204 17.254 24.184C17.989 24.173 19.624 23.888 20.889 23.552 22.544 23.112 23.324 23.075 23.672 23.423 24.455 24.206 24.24 24.637 22.82 25.132 20.83 25.825 20.982 27.292 23.043 27.292 25.155 27.292 25.081 28.352 22.931 28.882 21.696 29.188 21.261 29.527 21.261 30.186 21.261 31.046 21.371 31.072 23.432 30.701 23.647 30.662 23.915 30.885 24.029 31.197 24.15 31.527 23.664 31.962 22.86 32.242 21.865 32.589 21.484 33.002 21.484 33.737 21.484 34.666 21.644 34.734 23.377 34.549 24.679 34.409 25.547 34.565 26.16 35.049 27.044 35.747 27.042 35.759 25.975 36.662 25.158 37.352 24.817 37.437 24.555 37.012 24.278 36.565 23.572 36.561 21.057 36.992 17.45 37.611 17.156 37.616 15.853 37.09ZM19.366 35.017C19.551 34.902 19.703 34.313 19.703 33.708L19.703 32.608 17.93 33.623C15.443 35.046 15.174 35.948 17.357 35.539 18.277 35.366 19.18 35.131 19.366 35.017ZM19.621 30.742C19.729 30.172 19.476 29.962 18.677 29.962 17.524 29.962 16.377 30.941 16.907 31.472 17.499 32.062 19.471 31.532 19.621 30.742ZM28.796 25.422C27.591 24.382 25.241 22.285 23.575 20.763L20.545 17.996 17.564 21.02C14.998 23.622 10.462 26.829 9.328 26.842 9.131 26.844 10.133 25.877 11.554 24.692 14.886 21.912 17.212 19.315 18.33 17.123 19.216 15.387 19.216 15.369 18.35 14.585 17.142 13.492 17.257 13.043 18.744 13.043 20.571 13.043 21.776 14.498 21.127 15.921 20.551 17.186 20.924 17.523 26.07 20.373 29.992 22.545 32.287 24.69 32.094 26.006 31.864 27.578 31.144 27.451 28.796 25.423Z" fill="#fe4f4f"/>
    <path d="M16.285 37.231C15.107 36.991 14.178 35.961 14.569 35.328 14.726 35.074 15.294 34.631 15.832 34.345 16.72 33.872 16.752 33.893 16.189 34.576 15.322 35.626 15.789 35.889 17.892 35.534 19.53 35.257 19.703 35.102 19.703 33.92L19.703 32.612 18.256 33.36C16.924 34.048 16.858 34.05 17.42 33.371 17.943 32.741 17.934 32.635 17.356 32.635 16.74 32.635 16.141 31.762 16.141 30.865 16.141 30.666 16.491 30.37 16.921 30.207 17.545 29.969 17.589 30.021 17.143 30.471 16.213 31.408 16.513 31.808 18.033 31.661 19.137 31.554 19.481 31.311 19.481 30.631 19.481 30.03 19.227 29.783 18.701 29.871 18.273 29.943 17.922 29.793 17.922 29.537 17.922 29.282 17.66 29.072 17.339 29.072 17.019 29.072 16.368 28.765 15.892 28.39 15.089 27.755 15.185 27.716 17.254 27.833 19.242 27.946 19.495 27.856 19.617 26.998 19.725 26.246 19.465 25.974 18.424 25.745 17.692 25.585 16.876 25.191 16.61 24.871 16.227 24.409 16.611 24.224 18.472 23.975 22.41 23.447 23.838 23.472 24.043 24.072 24.153 24.397 23.65 24.842 22.86 25.118 20.835 25.824 20.958 27.291 23.043 27.291 24.131 27.291 24.601 27.493 24.601 27.959 24.601 28.337 24.202 28.627 23.681 28.627 22.274 28.627 21.039 29.454 21.039 30.396 21.039 31.121 21.272 31.205 22.657 30.98 23.924 30.774 24.23 30.853 24.067 31.342 23.953 31.686 23.475 32.038 23.006 32.126 21.723 32.366 21.106 33.021 21.337 33.901 21.499 34.521 22.013 34.69 23.744 34.69 26.589 34.69 27.464 35.476 25.975 36.693 25.192 37.333 24.811 37.427 24.572 37.04 24.272 36.554 21.852 36.642 18.163 37.272 17.663 37.357 16.818 37.339 16.285 37.231ZM12.702 23.744C15.967 20.7 18.3 17.823 18.951 16.036 19.135 15.53 18.921 14.972 18.358 14.49 17.133 13.441 17.256 13.043 18.802 13.043 20.516 13.043 21.789 14.758 21.071 16.1 20.526 17.118 20.889 17.434 26.16 20.522 30.236 22.911 31.625 24.128 31.978 25.622 32.634 28.395 29.923 26.769 23.437 20.496L20.714 17.863 17.426 21.13C15.617 22.927 13.036 24.976 11.688 25.684L9.239 26.971 12.702 23.744Z" fill="#fe2f2f"/>
    <path d="M14.846 36.469C14.188 35.675 14.476 35.061 15.832 34.363 16.637 33.949 16.712 33.965 16.252 34.45 15.426 35.324 15.574 35.752 16.698 35.745 18.911 35.732 19.703 35.25 19.703 33.918 19.703 32.415 19.613 32.388 18.018 33.406 16.871 34.138 16.84 34.138 17.42 33.406 17.947 32.74 17.932 32.635 17.309 32.635 16.911 32.635 16.586 32.435 16.586 32.189 16.586 31.944 17.288 31.744 18.145 31.744 19.529 31.744 19.703 31.614 19.703 30.579 19.703 29.633 19.536 29.458 18.813 29.647 18.323 29.775 17.923 29.697 17.923 29.476 17.923 29.254 17.66 29.072 17.339 29.072 17.019 29.072 16.368 28.762 15.892 28.384 15.092 27.748 15.198 27.717 17.305 27.973 19.2 28.203 19.631 28.121 19.873 27.491 20.258 26.487 19.465 25.596 18.035 25.425 14.824 25.043 17.704 23.808 22.375 23.565 23.972 23.481 24.069 24.285 22.556 25.067 20.671 26.042 20.803 27.461 22.782 27.491 23.617 27.504 24.384 27.764 24.488 28.071 24.599 28.401 24.288 28.627 23.718 28.627 22.253 28.627 21.038 29.45 21.038 30.444 21.038 31.232 21.233 31.303 22.655 31.036 24.737 30.646 24.563 31.746 22.455 32.293 21.345 32.581 21.039 32.897 21.039 33.76 21.039 34.809 21.166 34.86 23.711 34.86 26.085 34.86 26.382 34.96 26.382 35.751 26.382 36.241 26.232 36.646 26.048 36.651 25.865 36.657 23.396 36.771 20.562 36.905 16.282 37.106 15.314 37.033 14.846 36.469ZM25.563 22.379L20.563 17.879 17.55 20.915C15.893 22.585 13.445 24.522 12.11 25.22L9.685 26.487 11.243 25.255C13.909 23.146 17.343 19.298 18.435 17.195L19.481 15.182 18.479 14.503C17.228 13.656 17.193 13.043 18.397 13.043 20.184 13.043 21.11 13.895 20.979 15.419 20.912 16.201 21.002 17.075 21.179 17.362 21.356 17.649 23.286 18.905 25.467 20.152 30.753 23.178 33.484 26.311 31.218 26.751 30.858 26.821 28.313 24.853 25.563 22.379Z" fill="#fe0404"/>
</g>
</g>
</svg>
